X: 4
T:Old Joe Clark
C: Trad.
M:4/4
L:1/4
K:A
P:A
e|"A"ef =gf|"A"ed cA|"A"ef =gf|"G"e4|"A"ef =gf|"A"ed c2|"A"Ac "G"B/A/=G\
|"A"A3:|
P:B
E|"A"AA/A/ A2|"A"cB A2|"A"AA/A/ AA|"G"=G3 E|"A"AA/A/ A2|"A"cB A2|\
"A"Ac "G"B/A/=G|"A"A3:|

%%newpage

